;FLAVOR:Marlin
;TIME:5662
;Filament used: 3.42852m
;Layer height: 0.175
;MINX:29.959
;MINY:29.954
;MINZ:0.263
;MAXX:90.037
;MAXY:90.046
;MAXZ:40.863
;Generated with Cura_SteamEngine 4.6.1
M104 S225
M105
M109 S225
M82 ;absolute extrusion mode
G21;(metric values)
G90;(absolute positioning)
M82;(set extruder to absolute mode)
M107;(start with the fan off)
G28;(Home the printer)
G92 E0;(Reset the extruder to 0)
G0 Z5 E5 F500;(Move up and prime the nozzle)
G0 X-1 Z0;(Move outside the printable area)
G1 Y60 E8 F500;(Draw a priming/wiping line to the rear)
G1 X-1;(Move a little closer to the print area)
G1 Y10 E16 F500;(draw more priming/wiping)
G1 E15 F250;(Small retract)
G92 E0;(Zero the extruder)
G92 E0
G92 E0
G1 F2400 E-2.5
;LAYER_COUNT:233
;LAYER:0
M107
G0 F4320 X38.871 Y38.633 Z0.263
;TYPE:SKIRT
G1 F2400 E0
G1 F1800 X39.653 Y37.888 E0.04133
G1 X40.549 Y37.09 E0.08725
G1 X41.051 Y36.699 E0.1116
G1 X41.368 Y36.51 E0.12573
G1 X41.638 Y36.236 E0.14045
G1 X42.062 Y35.896 E0.16125
G1 X43.009 Y35.216 E0.20587
G1 X43.963 Y34.589 E0.24955
G1 X44.871 Y34.037 E0.29022
G1 X45.834 Y33.5 E0.33242
G1 X46.787 Y33.012 E0.37339
G1 X47.785 Y32.547 E0.41553
G1 X48.772 Y32.129 E0.45655
G1 X49.785 Y31.741 E0.49806
G1 X50.797 Y31.394 E0.539
G1 X51.856 Y31.077 E0.58131
G1 X52.896 Y30.803 E0.62247
G1 X53.95 Y30.566 E0.66381
G1 X55.034 Y30.366 E0.706
G1 X56.087 Y30.208 E0.74675
G1 X57.172 Y30.085 E0.78853
G1 X58.245 Y30.003 E0.82972
G1 X59.339 Y29.959 E0.87162
G1 X60.431 Y29.954 E0.91341
G1 X61.53 Y29.989 E0.95549
G1 X62.605 Y30.063 E0.99673
G1 X63.684 Y30.176 E1.03825
G1 X64.757 Y30.329 E1.07973
G1 X65.826 Y30.52 E1.12128
G1 X66.878 Y30.747 E1.16247
G1 X67.945 Y31.02 E1.20462
G1 X68.976 Y31.322 E1.24573
G1 X70.007 Y31.666 E1.28733
G1 X71.015 Y32.043 E1.32852
G1 X72.013 Y32.456 E1.36985
G1 X73.016 Y32.917 E1.41209
G1 X73.968 Y33.395 E1.45286
G1 X74.924 Y33.918 E1.49457
G1 X75.859 Y34.477 E1.53626
G1 X76.758 Y35.057 E1.5772
G1 X77.661 Y35.689 E1.61938
G1 X78.031 Y35.964 E1.63702
G1 X78.514 Y36.379 E1.66139
G1 X78.638 Y36.516 E1.66846
G1 X78.775 Y36.59 E1.67442
G1 X79.447 Y37.09 E1.70648
G1 X80.185 Y37.74 E1.74411
G1 X80.964 Y38.47 E1.78497
G1 X81.736 Y39.251 E1.827
G1 X82.462 Y40.039 E1.868
G1 X83.173 Y40.871 E1.90989
G1 X83.85 Y41.723 E1.95153
G1 X84.484 Y42.579 E1.9923
G1 X85.1 Y43.478 E2.034
G1 X85.683 Y44.402 E2.07582
G1 X86.226 Y45.336 E2.11716
G1 X86.737 Y46.288 E2.15851
G1 X87.216 Y47.266 E2.20019
G1 X87.665 Y48.269 E2.24224
G1 X88.079 Y49.296 E2.28462
G1 X88.446 Y50.32 E2.32625
G1 X88.775 Y51.348 E2.36756
G1 X89.067 Y52.383 E2.40871
G1 X89.324 Y53.442 E2.45042
G1 X89.543 Y54.508 E2.49206
G1 X89.721 Y55.568 E2.5332
G1 X89.861 Y56.648 E2.57487
G1 X89.961 Y57.723 E2.61619
G1 X90.024 Y58.8 E2.65748
G1 X90.036 Y59.476 E2.68335
G1 X90.02 Y60.005 E2.70361
G1 X90.037 Y60.671 E2.7291
G1 X89.983 Y61.993 E2.77974
G1 X89.887 Y63.13 E2.82341
G1 X89.756 Y64.2 E2.86466
G1 X89.584 Y65.274 E2.90629
G1 X89.374 Y66.336 E2.94772
G1 X89.125 Y67.394 E2.98931
G1 X88.84 Y68.436 E3.03065
G1 X88.516 Y69.476 E3.07234
G1 X88.157 Y70.494 E3.11365
G1 X87.758 Y71.508 E3.15535
G1 X87.33 Y72.492 E3.19642
G1 X86.845 Y73.502 E3.2393
G1 X86.336 Y74.47 E3.28115
G1 X85.796 Y75.41 E3.32264
G1 X85.232 Y76.32 E3.36361
G1 X84.619 Y77.23 E3.4056
G1 X83.983 Y78.104 E3.44697
G1 X83.317 Y78.954 E3.48829
G1 X82.617 Y79.784 E3.52985
G1 X81.891 Y80.585 E3.57122
G1 X81.129 Y81.367 E3.613
G1 X80.347 Y82.112 E3.65434
G1 X79.441 Y82.916 E3.70069
G1 X78.938 Y83.307 E3.72508
G1 X78.657 Y83.473 E3.73757
G1 X78.207 Y83.896 E3.7612
G1 X76.994 Y84.782 E3.81869
G1 X76.037 Y85.411 E3.86251
G1 X75.129 Y85.963 E3.90318
G1 X74.166 Y86.5 E3.94538
G1 X73.213 Y86.988 E3.98635
G1 X72.213 Y87.454 E4.02857
G1 X71.231 Y87.87 E4.06939
G1 X70.215 Y88.259 E4.11102
G1 X69.203 Y88.606 E4.15197
G1 X68.144 Y88.923 E4.19427
G1 X67.104 Y89.197 E4.23543
G1 X66.05 Y89.434 E4.27677
G1 X64.964 Y89.635 E4.31904
G1 X63.913 Y89.792 E4.35971
G1 X62.828 Y89.915 E4.4015
G1 X61.755 Y89.997 E4.44268
G1 X60.661 Y90.041 E4.48458
G1 X59.569 Y90.046 E4.52637
G1 X58.47 Y90.011 E4.56845
G1 X57.395 Y89.937 E4.60969
G1 X56.316 Y89.824 E4.65121
G1 X55.244 Y89.671 E4.69265
G1 X54.175 Y89.481 E4.7342
G1 X53.122 Y89.253 E4.77543
G1 X52.055 Y88.98 E4.81758
G1 X51.024 Y88.678 E4.8587
G1 X49.993 Y88.334 E4.90029
G1 X48.985 Y87.957 E4.94148
G1 X47.985 Y87.543 E4.9829
G1 X46.985 Y87.083 E5.02502
G1 X46.032 Y86.605 E5.06582
G1 X45.076 Y86.082 E5.10753
G1 X44.141 Y85.523 E5.14922
G1 X43.236 Y84.939 E5.19044
G1 X42.338 Y84.311 E5.23237
G1 X41.969 Y84.036 E5.24998
G1 X41.485 Y83.622 E5.27436
G1 X41.372 Y83.498 E5.28078
G1 X40.881 Y83.177 E5.30323
G1 X39.817 Y82.262 E5.35693
G1 X39.035 Y81.528 E5.39798
G1 X38.264 Y80.749 E5.43992
G1 X37.537 Y79.96 E5.48098
G1 X36.821 Y79.122 E5.52317
G1 X36.149 Y78.276 E5.56451
G1 X35.51 Y77.412 E5.60564
G1 X34.896 Y76.516 E5.64721
G1 X34.316 Y75.596 E5.68883
G1 X33.772 Y74.661 E5.73023
G1 X33.263 Y73.713 E5.77141
G1 X32.78 Y72.725 E5.81349
G1 X32.331 Y71.721 E5.85558
G1 X31.921 Y70.705 E5.89751
G1 X31.554 Y69.68 E5.93918
G1 X31.223 Y68.644 E5.9808
G1 X30.931 Y67.61 E6.02192
G1 X30.675 Y66.556 E6.06343
G1 X30.457 Y65.492 E6.10499
G1 X30.278 Y64.422 E6.14651
G1 X30.138 Y63.346 E6.18804
G1 X30.038 Y62.272 E6.22931
G1 X29.976 Y61.193 E6.27068
G1 X29.959 Y60.562 E6.29483
G1 X29.985 Y59.933 E6.31893
G1 X29.961 Y59.343 E6.34152
G1 X30.017 Y58.002 E6.39289
G1 X30.113 Y56.87 E6.43637
G1 X30.244 Y55.8 E6.47762
G1 X30.416 Y54.726 E6.51925
G1 X30.626 Y53.664 E6.56068
G1 X30.875 Y52.606 E6.60227
G1 X31.16 Y51.564 E6.64361
G1 X31.484 Y50.524 E6.6853
G1 X31.843 Y49.506 E6.72661
G1 X32.242 Y48.492 E6.76831
G1 X32.67 Y47.508 E6.80938
G1 X33.155 Y46.498 E6.85226
G1 X33.664 Y45.53 E6.89411
G1 X34.204 Y44.59 E6.9356
G1 X34.768 Y43.68 E6.97657
G1 X35.381 Y42.77 E7.01856
G1 X36.017 Y41.896 E7.05993
G1 X36.683 Y41.046 E7.10125
G1 X37.383 Y40.216 E7.1428
G1 X38.109 Y39.415 E7.18418
G1 X38.387 Y39.13 E7.19941
G0 F1620 X38.871 Y38.633
G0 F4320 X39.121 Y38.878
G1 F1800 X39.893 Y38.142 E7.24023
G1 X40.781 Y37.352 E7.28572
G1 X41.266 Y36.975 E7.30923
G1 X41.585 Y36.775 E7.32364
G1 X42.266 Y36.18 E7.35824
G1 X43.213 Y35.5 E7.40286
G1 X44.154 Y34.882 E7.44595
G1 X45.052 Y34.336 E7.48617
G1 X46.004 Y33.806 E7.52786
G1 X46.945 Y33.324 E7.56833
G1 X47.932 Y32.864 E7.61
G1 X48.908 Y32.451 E7.65056
G1 X49.91 Y32.069 E7.6916
G1 X50.91 Y31.726 E7.73205
G1 X51.955 Y31.412 E7.77381
G1 X52.984 Y31.142 E7.81453
G1 X54.026 Y30.908 E7.8554
G1 X55.097 Y30.71 E7.89708
G1 X56.138 Y30.554 E7.93736
G1 X57.21 Y30.433 E7.97865
G1 X58.271 Y30.352 E8.01937
G1 X59.352 Y30.309 E8.06077
G1 X60.432 Y30.304 E8.1021
G1 X61.517 Y30.339 E8.14365
G1 X62.58 Y30.412 E8.18443
G1 X63.646 Y30.524 E8.22545
G1 X64.706 Y30.675 E8.26642
G1 X65.763 Y30.864 E8.30751
G1 X66.803 Y31.088 E8.34823
G1 X67.857 Y31.358 E8.38987
G1 X68.877 Y31.657 E8.43054
G1 X69.895 Y31.998 E8.47163
G1 X70.892 Y32.37 E8.51236
G1 X71.878 Y32.779 E8.55321
G1 X72.868 Y33.234 E8.5949
G1 X73.81 Y33.707 E8.63524
G1 X74.755 Y34.224 E8.67647
G1 X75.679 Y34.777 E8.71768
G1 X76.567 Y35.351 E8.75814
G1 X77.46 Y35.975 E8.79984
G1 X77.82 Y36.244 E8.81703
G1 X78.285 Y36.645 E8.84053
G1 X78.421 Y36.797 E8.84834
G1 X78.753 Y36.993 E8.86309
G1 X79.216 Y37.352 E8.88551
G1 X79.954 Y38.002 E8.92315
G1 X80.723 Y38.725 E8.96354
G1 X81.487 Y39.497 E9.00511
G1 X82.204 Y40.275 E9.0456
G1 X82.907 Y41.098 E9.08702
G1 X83.575 Y41.94 E9.12816
G1 X84.202 Y42.787 E9.16848
G1 X84.81 Y43.675 E9.20967
G1 X85.386 Y44.588 E9.25098
G1 X85.923 Y45.512 E9.29188
G1 X86.429 Y46.452 E9.33274
G1 X86.901 Y47.419 E9.37392
G1 X87.345 Y48.411 E9.41551
G1 X87.754 Y49.426 E9.45739
G1 X88.117 Y50.437 E9.4985
G1 X88.441 Y51.453 E9.53931
G1 X88.729 Y52.477 E9.58002
G1 X88.984 Y53.524 E9.62126
G1 X89.2 Y54.577 E9.6624
G1 X89.375 Y55.625 E9.70306
G1 X89.514 Y56.692 E9.74424
G1 X89.613 Y57.754 E9.78506
G1 X89.675 Y58.819 E9.82588
G1 X89.686 Y59.479 E9.85115
G1 X89.657 Y59.988 E9.87066
G1 X89.686 Y60.252 E9.88082
G1 X89.687 Y60.657 E9.89632
G1 X89.633 Y61.979 E9.94695
G1 X89.538 Y63.098 E9.98993
G1 X89.408 Y64.156 E10.03073
G1 X89.238 Y65.217 E10.07185
G1 X89.031 Y66.268 E10.11284
G1 X88.785 Y67.313 E10.15393
G1 X88.503 Y68.343 E10.1948
G1 X88.182 Y69.371 E10.23601
G1 X87.828 Y70.376 E10.27679
G1 X87.433 Y71.379 E10.31804
G1 X87.01 Y72.352 E10.35865
G1 X86.53 Y73.35 E10.40103
G1 X86.027 Y74.306 E10.44237
G1 X85.493 Y75.235 E10.48338
G1 X84.935 Y76.134 E10.52387
G1 X84.329 Y77.034 E10.56539
G1 X83.7 Y77.898 E10.60629
G1 X83.042 Y78.738 E10.64713
G1 X82.351 Y79.557 E10.68814
G1 X81.632 Y80.349 E10.72907
G1 X80.879 Y81.122 E10.77037
G1 X80.107 Y81.858 E10.81119
G1 X79.209 Y82.654 E10.85712
G1 X78.723 Y83.03 E10.88063
G1 X78.413 Y83.21 E10.89435
G1 X78.28 Y83.359 E10.90199
G1 X77.73 Y83.822 E10.92951
G1 X76.79 Y84.498 E10.97382
G1 X75.846 Y85.118 E11.01704
G1 X74.948 Y85.664 E11.05726
G1 X73.996 Y86.194 E11.09896
G1 X73.055 Y86.676 E11.13942
G1 X72.067 Y87.136 E11.18113
G1 X71.095 Y87.547 E11.22152
G1 X70.09 Y87.931 E11.26269
G1 X69.09 Y88.274 E11.30315
G1 X68.045 Y88.588 E11.34491
G1 X67.016 Y88.858 E11.38562
G1 X65.974 Y89.092 E11.42649
G1 X64.901 Y89.29 E11.46825
G1 X63.862 Y89.446 E11.50845
G1 X62.79 Y89.567 E11.54974
G1 X61.729 Y89.648 E11.59046
G1 X60.648 Y89.691 E11.63186
G1 X59.568 Y89.696 E11.6732
G1 X58.483 Y89.661 E11.71474
G1 X57.42 Y89.588 E11.75552
G1 X56.354 Y89.476 E11.79654
G1 X55.294 Y89.325 E11.83751
G1 X54.238 Y89.136 E11.87857
G1 X53.197 Y88.912 E11.91932
G1 X52.143 Y88.642 E11.96096
G1 X51.123 Y88.343 E12.00164
G1 X50.105 Y88.002 E12.04272
G1 X49.108 Y87.63 E12.08345
G1 X48.12 Y87.22 E12.12439
G1 X47.132 Y86.766 E12.166
G1 X46.19 Y86.293 E12.20634
G1 X45.245 Y85.776 E12.24756
G1 X44.321 Y85.223 E12.28877
G1 X43.426 Y84.645 E12.32954
G1 X42.539 Y84.024 E12.37098
G1 X42.179 Y83.756 E12.38816
G1 X41.713 Y83.356 E12.41166
G1 X41.58 Y83.208 E12.41928
G1 X41.42 Y83.122 E12.42623
G1 X40.797 Y82.658 E12.45596
G1 X40.048 Y81.999 E12.49413
G1 X39.276 Y81.274 E12.53466
G1 X38.513 Y80.503 E12.57618
G1 X37.795 Y79.724 E12.61672
G1 X37.088 Y78.896 E12.65839
G1 X36.424 Y78.059 E12.69928
G1 X35.792 Y77.205 E12.73993
G1 X35.186 Y76.319 E12.78101
G1 X34.612 Y75.41 E12.82216
G1 X34.075 Y74.486 E12.86306
G1 X33.572 Y73.548 E12.90379
G1 X33.095 Y72.572 E12.94536
G1 X32.651 Y71.579 E12.98699
G1 X32.247 Y70.575 E13.02841
G1 X31.883 Y69.563 E13.06957
G1 X31.557 Y68.539 E13.11069
G1 X31.269 Y67.516 E13.15136
G1 X31.015 Y66.475 E13.19237
G1 X30.8 Y65.423 E13.23346
G1 X30.623 Y64.366 E13.27448
G1 X30.485 Y63.302 E13.31554
G1 X30.387 Y62.241 E13.35632
G1 X30.325 Y61.174 E13.39722
G1 X30.309 Y60.554 E13.42095
G1 X30.333 Y60.001 E13.44214
G1 X30.311 Y59.358 E13.46676
G1 X30.367 Y58.017 E13.51812
G1 X30.462 Y56.902 E13.56095
G1 X30.592 Y55.844 E13.60174
G1 X30.762 Y54.783 E13.64287
G1 X30.969 Y53.732 E13.68386
G1 X31.215 Y52.687 E13.72495
G1 X31.497 Y51.657 E13.76581
G1 X31.818 Y50.629 E13.80703
G1 X32.172 Y49.624 E13.84781
G1 X32.567 Y48.621 E13.88906
G1 X32.99 Y47.648 E13.92966
G1 X33.47 Y46.65 E13.97205
G1 X33.973 Y45.694 E14.01339
G1 X34.507 Y44.765 E14.05439
G1 X35.065 Y43.866 E14.09489
G1 X35.671 Y42.966 E14.13641
G1 X36.3 Y42.102 E14.17731
G1 X36.958 Y41.262 E14.21815
G1 X37.649 Y40.443 E14.25915
G1 X38.368 Y39.651 E14.30009
G1 X38.637 Y39.375 E14.31484
G0 F1620 X39.121 Y38.878
G0 F4320 X39.371 Y39.123
G1 F1800 X40.134 Y38.396 E14.35517
G1 X41.013 Y37.614 E14.4002
G1 X41.481 Y37.253 E14.42282
G1 X41.806 Y37.066 E14.43717
G1 X41.981 Y36.872 E14.44717
G1 X42.47 Y36.464 E14.47154
G1 X43.417 Y35.784 E14.51616
G1 X44.344 Y35.176 E14.55858
G1 X45.233 Y34.636 E14.59839
G1 X46.173 Y34.112 E14.63957
G1 X47.104 Y33.636 E14.67959
G1 X48.079 Y33.182 E14.72075
G1 X49.043 Y32.774 E14.76081
G1 X50.034 Y32.396 E14.8014
G1 X51.023 Y32.057 E14.84141
G1 X52.054 Y31.748 E14.8826
G1 X53.072 Y31.48 E14.92289
G1 X54.102 Y31.249 E14.96329
G1 X55.159 Y31.054 E15.00442
G1 X56.189 Y30.9 E15.04428
G1 X57.248 Y30.781 E15.08506
G1 X58.297 Y30.701 E15.12532
G1 X59.365 Y30.659 E15.16622
G1 X60.432 Y30.654 E15.20706
G1 X61.505 Y30.689 E15.24814
G1 X62.555 Y30.761 E15.28842
G1 X63.609 Y30.872 E15.32898
G1 X64.656 Y31.021 E15.36945
G1 X65.701 Y31.208 E15.41008
G1 X66.728 Y31.43 E15.45029
G1 X67.769 Y31.697 E15.49142
G1 X68.778 Y31.993 E15.53166
G1 X69.783 Y32.329 E15.57222
G1 X70.769 Y32.698 E15.61251
G1 X71.743 Y33.102 E15.65286
G1 X72.721 Y33.552 E15.69406
G1 X73.652 Y34.02 E15.73394
G1 X74.586 Y34.531 E15.77468
G1 X75.498 Y35.077 E15.81536
G1 X76.377 Y35.644 E15.85539
G1 X77.258 Y36.261 E15.89655
G1 X77.609 Y36.523 E15.91332
G1 X78.056 Y36.91 E15.93594
G1 X78.187 Y37.06 E15.94356
G1 X78.719 Y37.399 E15.96771
G1 X79.723 Y38.265 E16.01845
G1 X80.483 Y38.979 E16.05836
G1 X81.237 Y39.742 E16.09941
G1 X81.946 Y40.512 E16.13946
G1 X82.64 Y41.324 E16.18034
G1 X83.301 Y42.157 E16.22104
G1 X83.92 Y42.994 E16.26088
G1 X84.521 Y43.872 E16.3016
G1 X85.09 Y44.773 E16.34238
G1 X85.62 Y45.687 E16.38281
G1 X86.12 Y46.617 E16.42322
G1 X86.586 Y47.572 E16.46389
G1 X87.026 Y48.553 E16.50504
G1 X87.429 Y49.555 E16.54637
G1 X87.787 Y50.554 E16.58698
G1 X88.107 Y51.559 E16.62734
G1 X88.392 Y52.571 E16.66758
G1 X88.644 Y53.606 E16.70835
G1 X88.857 Y54.646 E16.74897
G1 X89.03 Y55.681 E16.78913
G1 X89.166 Y56.736 E16.82984
G1 X89.264 Y57.786 E16.8702
G1 X89.325 Y58.839 E16.91056
G1 X89.336 Y59.482 E16.93518
G1 X89.308 Y59.961 E16.95354
G1 X89.337 Y60.643 E16.97966
G1 X89.283 Y61.965 E17.0303
G1 X89.189 Y63.067 E17.07262
G1 X89.061 Y64.112 E17.11291
G1 X88.893 Y65.161 E17.15357
G1 X88.688 Y66.199 E17.19406
G1 X88.445 Y67.231 E17.23464
G1 X88.166 Y68.25 E17.27507
G1 X87.848 Y69.266 E17.31581
G1 X87.498 Y70.259 E17.35611
G1 X87.107 Y71.25 E17.39688
G1 X86.689 Y72.211 E17.43698
G1 X86.215 Y73.198 E17.47888
G1 X85.718 Y74.143 E17.51975
G1 X85.19 Y75.06 E17.56024
G1 X84.638 Y75.949 E17.60029
G1 X84.04 Y76.838 E17.64129
G1 X83.418 Y77.691 E17.68169
G1 X82.767 Y78.521 E17.72206
G1 X82.084 Y79.331 E17.76261
G1 X81.374 Y80.113 E17.80303
G1 X80.629 Y80.877 E17.84387
G1 X79.866 Y81.604 E17.8842
G1 X78.978 Y82.391 E17.92961
G1 X78.509 Y82.752 E17.95226
G1 X78.195 Y82.932 E17.96611
G1 X77.888 Y83.247 E17.98295
G1 X77.525 Y83.538 E18.00075
G1 X76.585 Y84.214 E18.04506
G1 X75.656 Y84.824 E18.08759
G1 X74.767 Y85.364 E18.1274
G1 X73.827 Y85.888 E18.16859
G1 X72.896 Y86.364 E18.2086
G1 X71.92 Y86.818 E18.2498
G1 X70.959 Y87.225 E18.28974
G1 X69.966 Y87.604 E18.33041
G1 X68.977 Y87.943 E18.37042
G1 X67.946 Y88.252 E18.41161
G1 X66.928 Y88.52 E18.4519
G1 X65.898 Y88.751 E18.4923
G1 X64.839 Y88.946 E18.53351
G1 X63.812 Y89.099 E18.57324
G1 X62.752 Y89.219 E18.61407
G1 X61.703 Y89.299 E18.65433
G1 X60.635 Y89.341 E18.69523
G1 X59.568 Y89.346 E18.73607
G1 X58.495 Y89.311 E18.77715
G1 X57.445 Y89.239 E18.81743
G1 X56.391 Y89.128 E18.85799
G1 X55.344 Y88.978 E18.89847
G1 X54.3 Y88.792 E18.93905
G1 X53.272 Y88.57 E18.9793
G1 X52.231 Y88.303 E19.02043
G1 X51.222 Y88.007 E19.06067
G1 X50.217 Y87.671 E19.10122
G1 X49.231 Y87.302 E19.14151
G1 X48.255 Y86.897 E19.18195
G1 X47.279 Y86.448 E19.22307
G1 X46.348 Y85.98 E19.26295
G1 X45.414 Y85.469 E19.30369
G1 X44.502 Y84.923 E19.34437
G1 X43.617 Y84.352 E19.38468
G1 X42.741 Y83.738 E19.42561
G1 X42.389 Y83.477 E19.44238
G1 X41.942 Y83.09 E19.46501
G1 X41.801 Y82.93 E19.47317
G1 X41.437 Y82.715 E19.48935
G1 X41.028 Y82.396 E19.5092
G1 X40.279 Y81.737 E19.54738
G1 X39.516 Y81.02 E19.58745
G1 X38.763 Y80.258 E19.62845
G1 X38.053 Y79.487 E19.66856
G1 X37.355 Y78.669 E19.70971
G1 X36.698 Y77.842 E19.75013
G1 X36.074 Y76.997 E19.79033
G1 X35.475 Y76.122 E19.83092
G1 X34.909 Y75.225 E19.87151
G1 X34.378 Y74.311 E19.91196
G1 X33.88 Y73.383 E19.95226
G1 X33.41 Y72.42 E19.99327
G1 X32.971 Y71.437 E20.03447
G1 X32.572 Y70.445 E20.07539
G1 X32.213 Y69.446 E20.11602
G1 X31.89 Y68.433 E20.15671
G1 X31.606 Y67.422 E20.1969
G1 X31.356 Y66.393 E20.23742
G1 X31.143 Y65.354 E20.27801
G1 X30.969 Y64.309 E20.31856
G1 X30.833 Y63.258 E20.35911
G1 X30.736 Y62.21 E20.39939
G1 X30.675 Y61.154 E20.43987
G1 X30.659 Y60.547 E20.46311
G1 X30.686 Y59.956 E20.48575
G1 X30.661 Y59.372 E20.50812
